X:30
T:Untitled. RDO.30
M:2/4
L:1/16
Q:1/4=100
S:Robert D. Owen MS,Indiana,1826.
R:.Misc.
O:Indiana,USA
A:New Harmony
Z:vmp.Chris Partington
K:Eb
G3AB2B2|cedfe4|agfg fede|defdB4|!
G3AB2B2|cedf e2B2|c=efa gbdf|e2e2e4:|!
|:B2B2 cedf|egfag4|gfef edcB|cded B3A|!
G3AB2B2|cedf e2B2|c=efa|gbdf|e2e2e4:|!
e3fg2g2|g3ab2b2|a2a2 g2g2|f2f2f4|!
e3fg2g2|g3ab2b2|a2a2 {a}g2fe|dfdBe4:|

